X:1
T:Title
%%score ( 1 2 ) { 3 | ( 4 5 ) }
L:1/8
Q:1/4=110
M:4/4
K:G
V:1 treble nm="Grand Piano, Unnamed-000"
V:2 treble 
V:3 bass nm="Choir Pad, Melita, 88.88.88"
V:4 bass 
V:5 bass 
V:1
 C2 [CE]2- [CE][CE] [EG]2 | [EG]2 [=FA]2 [FA]2 [EG]2 | z2 c2 d2 z2 | G2 z2 z4 | z8 | z8 | z8 | %7
w: By~John~Bacchus~Dykes,~1861 * * * *|||||||
 z .A3 z4 | z8 | z8 | z8 | z8 | z8 |] %13
w: ||||||
V:2
 x8 | x8 | G2 G2- G/ z/ F [GB]2 | DE [DG]2 [DF]2 [DG]2- | %4
 (3:2:2[DG] [B,D]2- [B,D][D=F]- [DF]2 (3:2:2[DF] [CE]2- | %5
 (3:2:2[CE] [CE]2- [CE][EG]- [EG]2 (3:2:2[EG] [DF]2- | (7:8:7[DF]/[FB]/-[FB]3/2[EG]3/2F^DE- | %7
 E z (3:2:2F [EG]2- [^D-EF-G][DF]- (3:2:2[DF] E2- | %8
 E>[B,E]- [B,E]>[_B,E]- [B,E]2- [B,E]/[B,E][A,=F]/- | %9
 [A,F]>[C=F]- [CF]>[C^F]- [CF]2- [CF]/[CF][B,G]/- | [B,G]>[=FG]- [FG]>[EG]- [EG]>[DA]- [DA]>[EG]- | %11
 [EG]>[CE]- [CE]>[B,D]- [B,D]2- [B,D]/CC/- | C8 |] %13
V:3
 E,2 G,2- G,G, C2- | C2 A,B,[K:treble] CD E2 | D2 C2[K:bass] A,2 B,2 | DC A,2 A,2 B,2- | %4
 (3:2:2B, G,2- G,G,- G,2 (3:2:2G, G,2- | (3:2:2G, G,2- G,A,- A,2 (3:2:2A, A,2- | %6
 (3:2:2A, B,2- B,B,- (3:2:2B, A,2- A,B,- | (3:2:2B, C2- CB,- (3B,/ z/ B,2- B,G,- | %8
 G,>G,- G,>G,- G,2- G,/G,=F,/- | F,>A,- A,>A,- A,2- A,/A,G,/- | G,>[K:treble]D- D>C- C>C- C>C- | %11
 C>[K:bass]G,- G,>=F,- F,2- F,/E,E,/- | E,8 |] %13
V:4
 C,2 C,2- C,C, C,2 | z B,=F,G, A,B, C2 | B,2 A,2 D,2 G,2 | B,,C, D,2 D,2 G,2- | %4
 G,2 (3:2:2z B,,2- B,,2 (3:2:2B,, C,2- | (3:2:2C, C,2- C,^C,- C,2 (3:2:2C, D,2- | %6
 (3:2:2D, ^D,2- D,E,- (3:2:2E, F,2- F,G,- | (3:2:2G, A,2- A, z (3:2:2z B,,2- B,,E,- | %8
 E,>E,- E,>C,- C,2- C,<.C, | z z/ =F,/- F,>D,- D,2- D,<.D, | z z/ B,,/- B,,>C,- C,>F,,- F,,>G,,- | %11
 G,,>G,,- G,,>G,,- G,,2- G,,/C,C,/- | C,8 |] %13
V:5
 x8 | C,2 z2 z4 | x8 | x8 | x8 | x8 | x8 | x8 | x8 | x8 | x8 | x8 | x8 |] %13

